X:16
T:Russian Sher Traditional tune 2
Z:Jack Campin, http://www.campin.me.uk
F:http://www.campin.me.uk/Music/EdinburghKlezmer.abc
M:2/4
L:1/8
Q:1/4=110
K:DMin
  dd        d2      |  ff     f2      |  e>d ^cd   |   e4       |\
  ee        e2      |  gg     g2      |  f>e  df   |   a2    z2 |
  za        ga      |  b>a    g2      |  ad   ef   | (3agf (3fed|\
  ef-       f2      |(3fed (3^cde     |  d2   z2   |[1 z4      :|\
                                                    [2 c2    z2||
%
"^+8va"\
|:A/c/=B/c/ d/c/B/c/|  fc     AF      |  G>A  B/A/G|  ^GA    z2 |
  A/c/=B/c/ d/c/B/c/|  fc     AF      |  G>A  B/A/G|   F^c   de:|
%
  f>e       d2      |  ze     fg      |  f>e  d2   |   za   ^ga |\
  g>f       e2      |  ze     fg      |(3fed  a2   | (3agf (3fed|
  b>a       g2      |  zg     f/e/f/g/|  a>g  f2   |   z^c   de |\
  f>e       d2      |  fe/d/ ^c/d/e/c/|  d4        |   z4      |]
